public/src/images/icons/user.svg

<svg width="10" height="10" viewBox="0 0 10 10" fill="none" xmlns="http://www.w3.org/2000/svg">
<path opacity="0.7" fill-rule="evenodd" clip-rule="evenodd" d="M1.58594 6.50781C2.66146 6.07031 3.6914 5.85156 4.67578 5.85156C5.66016 5.85156 6.68554 6.06575 7.75195 6.49414C8.81837 6.92253 9.35156 7.48307 9.35156 8.17578V9.35156H0V8.17578C0 7.48307 0.528641 6.92709 1.58594 6.50781ZM6.31641 3.99219C5.86067 4.44792 5.31381 4.67578 4.67578 4.67578C4.03776 4.67578 3.49089 4.44792 3.03516 3.99219C2.57942 3.53646 2.35156 2.98959 2.35156 2.35156C2.35156 1.71354 2.57942 1.16211 3.03516 0.697266C3.49089 0.23242 4.03776 0 4.67578 0C5.31381 0 5.86067 0.23242 6.31641 0.697266C6.77214 1.16211 7 1.71354 7 2.35156C7 2.98959 6.77214 3.53646 6.31641 3.99219Z" fill="#4A4A4A"/>
</svg>

<svg width="10" height="10" fill="none" xmlns="http://www.w3.org/2000/svg"><path opacity=".7" fill-rule="evenodd" clip-rule="evenodd" d="M1.586 6.508c1.075-.438 2.105-.656 3.09-.656.984 0 2.01.214 3.076.642 1.066.429 1.6.99 1.6 1.682v1.176H0V8.176c0-.693.529-1.249 1.586-1.668zm4.73-2.516a2.238 2.238 0 01-1.64.684 2.237 2.237 0 01-1.64-.684 2.237 2.237 0 01-.684-1.64c0-.638.227-1.19.683-1.655A2.216 2.216 0 014.675 0c.639 0 1.186.232 1.641.697.456.465.684 1.017.684 1.655 0 .638-.228 1.184-.684 1.64z" fill="#4A4A4A"/></svg>
